X:1
T:Sheila Coyle's
R:reel
M:4/4
L:1/8
K:D
|:FA~A2 FADF|ADFA BAFD|GBBA ~B2BA|ABdf edBA|
|FA~A2 FADF|ADFA BAFD|GABd AF~F2|1 EFGE FDDE:|2 EFGE FDDA|]
|:dffe fgfe|dcdB AFDF|Bc~c2 ac~c2|ABBc BAFA|
|dffe fgfe|dcdB AFDF||GABd AF~F2|1 EFGE FDDA:|2 EFGE FDDE|]